ckanext/helixtheme/public/images/icons/resources/shapefile.svg

<svg xmlns="http://www.w3.org/2000/svg" width="74" height="102" viewBox="0 0 74 102">
  <title>shapefile</title>
  <g>
    <path d="M46.226,33.052v-2.39H44.222L30.725,14.556V11.174H26.647v4.079h2.966L39.705,27.295a20.96646,20.96646,0,0,0-24.052.764h-3.11v3.742h3.742V29.207a19.884,19.884,0,0,1,12.256-4.032,19.6155,19.6155,0,0,1,13.862,6.009c.027.029.048.06.076.088v3.13h2.445a19.778,19.778,0,0,1-1.52,23.104H40.609V61.25H44.35V58.404a21.08135,21.08135,0,0,0,3.203-21.74L57.371,48.38v3.875H61.45V48.173H58.895Zm-16.803-19.1H27.948V12.476h1.475ZM60.152,50.951H58.678V49.478h1.474Z"/>
    <path d="M50.943,80.35a5.72746,5.72746,0,0,0-1.302.104v4.179a4.82274,4.82274,0,0,0,1.07.084c1.701,0,2.751-.861,2.751-2.289C53.462,81.126,52.559,80.35,50.943,80.35Z"/>
    <path d="M37.986,80.412h-.042c-.21.84-.42,1.91-.651,2.729l-.84,3.003h3.129L38.7,83.142C38.448,82.302,38.196,81.252,37.986,80.412Z"/>
    <path d="M73.98,24.443a1.9769,1.9769,0,0,0-.475-1.295L53.837.684c-.004-.006-.01-.008-.017-.014a1.97156,1.97156,0,0,0-.396-.334c-.043-.028-.086-.053-.131-.078a2.10967,2.10967,0,0,0-.396-.165c-.037-.011-.069-.026-.106-.036A2.00142,2.00142,0,0,0,52.333,0H4A4.00531,4.00531,0,0,0,0,4V98a4.00467,4.00467,0,0,0,4,4H70a4.00338,4.00338,0,0,0,4-4V24.667A2.11829,2.11829,0,0,0,73.98,24.443ZM10.35,92.38a9.21255,9.21255,0,0,1-4.01-.882l.651-2.625a8.08684,8.08684,0,0,0,3.548.883c1.47,0,2.247-.609,2.247-1.533,0-.882-.672-1.386-2.373-1.974-2.352-.84-3.905-2.142-3.905-4.199,0-2.415,2.037-4.241,5.354-4.241a8.2597,8.2597,0,0,1,3.611.714l-.714,2.562a6.6189,6.6189,0,0,0-2.939-.672c-1.386,0-2.058.65-2.058,1.365,0,.902.777,1.301,2.625,1.994,2.499.924,3.653,2.226,3.653,4.221C16.04,90.364,14.234,92.38,10.35,92.38Zm19.549-.21H26.708V86.249h-5.27V92.17H18.247V78.019h3.191v5.438h5.27V78.019h3.191Zm11.236,0-1.092-3.633H35.99L34.982,92.17H31.686L35.99,78.019h4.199L44.598,92.17Zm14.196-6.488a6.66006,6.66006,0,0,1-4.598,1.491,5.493,5.493,0,0,1-1.092-.084V92.17H46.47V78.207a26.219,26.219,0,0,1,4.325-.293,6.78492,6.78492,0,0,1,4.325,1.133,4.07746,4.07746,0,0,1,1.512,3.275A4.41012,4.41012,0,0,1,55.331,85.682ZM67.7,92.17H58.693V78.019h8.713v2.624H61.885v2.939h5.207v2.604H61.885v3.359H67.7ZM4,67.917V4H50.333V24.466a2.00073,2.00073,0,0,0,2,2H70l.002,41.451Z"/>
  </g>
</svg>

<?xml version="1.0" encoding="utf-8"?>
<!-- Generator: Adobe Illustrator 15.0.2, SVG Export Plug-In  -->
<!DOCTYPE svg PUBLIC "-//W3C//DTD SVG 1.1//EN" "http://www.w3.org/Graphics/SVG/1.1/DTD/svg11.dtd" [
	<!ENTITY ns_flows "http://ns.adobe.com/Flows/1.0/">
]>
<svg version="1.1"
	 xmlns="http://www.w3.org/2000/svg" xmlns:xlink="http://www.w3.org/1999/xlink" xmlns:a="http://ns.adobe.com/AdobeSVGViewerExtensions/3.0/"
	 x="0px" y="0px" width="126px" height="126px" viewBox="-25.893 -11.787 126 126"
	 overflow="visible" enable-background="new -25.893 -11.787 126 126" xml:space="preserve">
<defs>
</defs>
<path fill="#000000" d="M46.226,33.052v-2.39h-2.004L30.725,14.556v-3.382h-4.078v4.079h2.966l10.092,12.042
	c-3.291-2.152-7.115-3.354-11.142-3.42c-4.684-0.089-9.191,1.402-12.91,4.184h-3.11v3.742h3.742v-2.594
	c3.502-2.663,7.753-4.059,12.256-4.032c5.272,0.086,10.194,2.221,13.862,6.009c0.027,0.029,0.048,0.06,0.076,0.088v3.13h2.445
	c4.492,7.138,3.953,16.513-1.52,23.104h-2.795v3.744h3.741v-2.846c5.15-6.154,6.236-14.605,3.203-21.74l9.818,11.716v3.875h4.079
	v-4.082h-2.555L46.226,33.052z M29.423,13.952h-1.475v-1.476h1.475V13.952z M60.152,50.951h-1.474v-1.473h1.474V50.951z"/>
<path fill="#000000" d="M50.943,80.35c-0.63,0-1.071,0.041-1.302,0.104v4.179c0.272,0.062,0.588,0.084,1.07,0.084
	c1.701,0,2.751-0.861,2.751-2.289C53.462,81.126,52.559,80.35,50.943,80.35z"/>
<path fill="#000000" d="M37.986,80.412h-0.042c-0.21,0.84-0.42,1.91-0.651,2.729l-0.84,3.003h3.129L38.7,83.142
	C38.448,82.302,38.196,81.252,37.986,80.412z"/>
<path fill="#000000" d="M73.98,24.443c-0.006-0.468-0.154-0.93-0.475-1.295L53.837,0.684c-0.004-0.006-0.01-0.008-0.017-0.014
	c-0.116-0.131-0.252-0.239-0.396-0.334c-0.043-0.028-0.086-0.053-0.131-0.078c-0.127-0.068-0.258-0.124-0.396-0.165
	c-0.037-0.011-0.069-0.026-0.106-0.036C52.642,0.022,52.489,0,52.333,0H4C1.795,0,0,1.795,0,4v94c0,2.206,1.795,4,4,4h66
	c2.207,0,4-1.794,4-4V24.667C74,24.592,73.988,24.518,73.98,24.443z M10.35,92.38c-1.617,0-3.212-0.44-4.01-0.882l0.651-2.625
	c0.84,0.441,2.184,0.883,3.548,0.883c1.47,0,2.247-0.609,2.247-1.533c0-0.882-0.672-1.386-2.373-1.974
	c-2.352-0.84-3.905-2.142-3.905-4.199c0-2.415,2.037-4.241,5.354-4.241c1.617,0,2.771,0.314,3.611,0.714l-0.714,2.562
	c-0.546-0.273-1.575-0.672-2.939-0.672c-1.386,0-2.058,0.65-2.058,1.365c0,0.902,0.777,1.301,2.625,1.994
	c2.499,0.924,3.653,2.226,3.653,4.221C16.04,90.364,14.234,92.38,10.35,92.38z M29.899,92.17h-3.191v-5.921h-5.27v5.921h-3.191
	V78.019h3.191v5.438h5.27v-5.438h3.191V92.17z M41.135,92.17l-1.092-3.633h-4.053l-1.008,3.633h-3.296l4.304-14.151h4.199
	l4.409,14.151H41.135z M55.331,85.682c-1.092,1.008-2.708,1.491-4.598,1.491c-0.42,0-0.798-0.021-1.092-0.084v5.081H46.47V78.207
	c0.987-0.168,2.373-0.293,4.325-0.293c1.974,0,3.381,0.377,4.325,1.133c0.924,0.715,1.512,1.891,1.512,3.275
	C56.632,83.709,56.192,84.905,55.331,85.682z M67.7,92.17h-9.007V78.019h8.713v2.624h-5.521v2.939h5.207v2.604h-5.207v3.359H67.7
	V92.17z M4,67.917V4h46.333v20.466c0,1.104,0.896,2,2,2H70l0.002,41.451H4z"/>
</svg>
